X: 28
T: Miss Wroughtons Minuet
C: (Cantelo)
R: minuet
M: 3/4
L: 1/16
Z: 2010 John Chambers <jc:trillian.mit.edu>
B: Cantelo ed. "Twenty Four American Country Dances", London 1785 (Longman & Broderip)
S: http://www.archive.org/stream/bibliographyofea00sonnrich/bibliographyofea00sonnrich_djvu.txt
S: http://imslp.org/wiki/24_American_Country_Dances_(Cantelo,_Hezekiah)
K: C
% - - - - - - - - - - - - - - - - - - - - - - - - - - - - -
V: 1
|:\
g4 (e2c2) (e2g2) | (g2f2) d8 |\
f4 (e2c2) (A2d2) | (c2B2) G8 |\
g4 e2c2 e2g2 | a3b c'6 zg |
(g3a/g/) f4 e4 | ([e8c8] [d4B4] :|\
|:\
d8 (gfef) | (e4 c)(def) (gedc) |\
(d4 d)(fef) (gfef) | (e4 c)(def) (gedc) |
c3a (a3b/a/) g4 | B3f (f3g/f/) e4 |\
d3e (fgag) (fedc) | (B3c/d/) (c2B2)(A2G2) |\
g4 (e2c2) (e2g2) | (g2f2) d8 |
f4 (e2c2) (A2d2) | (c2B2) G8 |\
g4 (e2c2) (e2g2) | a3b c'2a2g2f2 |\
(e3f/g/) [c4E4] [B4D4] | [B8D8] [c4E4] :|
% - - - - - - - - - - - - - - - - - - - - - - - - - - - - -
V: 2 clef=bass middle=d
|: [e'2c'2][e'2c'2][e'2c'2][e'2c'2][e'2c'2][e'2c'2] | [d'2b2][d'2b2][d'2b2][d'2b2][d'2b2][d'2b2] |\
   [c'2a2][c'2a2][c'2a2][c'2a2][c'2a2][c'2a2] | [b2g2][b2g2][b2g2][b2g2]g2f2 |\
   e2e2e2e2e2e2 | f3g a6 z2 | z4 b4 c'4 | g4 d4 G4 :|[K:C clef=treble]
|: (3B,2D2G2 (3B,2D2G2 (3B,2D2G2 | (3C2E2G2 (3C2E2G2 (3C2E2G2 |\
   (3B,2D2G2 (3B,2D2G2 (3B,2D2G2 | (3C2E2G2 (3C2E2G2 (3C2E2G2 |\
   (3C2E2G2 (3C2E2G2 (3C2E2G2 | (3G,2B,2D2 (3G,2B,2D2 (3G,2C2E2 |\
   (3G,2B,2D2 (3G,2D2F2 (3G,2C2E2 |[K:C clef=bass middle=d] g4 G4 z4 |
   [e'2c'2][e'2c'2][e'2c'2][e'2c'2][e'2c'2][e'2c'2] | [d'2b2][d'2b2][d'2b2][d'2b2][d'2b2][d'2b2] |\
   [c'2a2][c'2a2][c'2a2][c'2a2][c'2a2][c'2a2] | [b2g2][b2g2][b2g2][b2g2]g2f2 |\
   e2e2e2e2e2e2 | f3g a4 b4 | c'4 g4 G4 | c4 G4 C4 :|

%%sep 2 1 500

